icon-themes/sifr_svg/cmd/lc_controlcodes.svg

<svg viewBox="0 0 24 24" xmlns="http://www.w3.org/2000/svg"><path d="m12 2c-3.3137085 0-6 2.6862915-6 6 0 .0837503.0083201.1651314.0117188.2480469-.003242.0843183-.0117188.1668409-.0117188.2519531 0 3.589851 2.9101491 6.5 6.5 6.5.166881-.00074.333671-.007904.5-.021484v8.021484h2v-19h1 1v19h2v-19.25-1.75h-6.5z" fill="#555753"/></svg>

<?xml version="1.0" encoding="UTF-8" standalone="no"?>
<svg
   xmlns:dc="http://purl.org/dc/elements/1.1/"
   xmlns:cc="http://creativecommons.org/ns#"
   xmlns:rdf="http://www.w3.org/1999/02/22-rdf-syntax-ns#"
   xmlns:svg="http://www.w3.org/2000/svg"
   xmlns="http://www.w3.org/2000/svg"
   xmlns:sodipodi="http://sodipodi.sourceforge.net/DTD/sodipodi-0.dtd"
   xmlns:inkscape="http://www.inkscape.org/namespaces/inkscape"
   viewBox="0 0 24 24"
   version="1.1"
   id="svg4"
   sodipodi:docname="lc_controlcodes.svg"
   inkscape:version="0.92.4 (unknown)">
  <metadata
     id="metadata10">
    <rdf:RDF>
      <cc:Work
         rdf:about="">
        <dc:format>image/svg+xml</dc:format>
        <dc:type
           rdf:resource="http://purl.org/dc/dcmitype/StillImage" />
        <dc:title></dc:title>
      </cc:Work>
    </rdf:RDF>
  </metadata>
  <defs
     id="defs8" />
  <sodipodi:namedview
     pagecolor="#ffffff"
     bordercolor="#666666"
     borderopacity="1"
     objecttolerance="10"
     gridtolerance="10"
     guidetolerance="10"
     inkscape:pageopacity="0"
     inkscape:pageshadow="2"
     inkscape:window-width="1366"
     inkscape:window-height="706"
     id="namedview6"
     showgrid="true"
     inkscape:zoom="13.906433"
     inkscape:cx="18.183414"
     inkscape:cy="8.9072356"
     inkscape:window-x="0"
     inkscape:window-y="0"
     inkscape:window-maximized="1"
     inkscape:current-layer="svg4">
    <inkscape:grid
       type="xygrid"
       id="grid828" />
  </sodipodi:namedview>
  <path
     style="fill:#555753"
     d="M 12 2 C 8.6862915 2 6 4.6862915 6 8 C 6 8.0837503 6.0083201 8.1651314 6.0117188 8.2480469 C 6.0084768 8.3323652 6 8.4148878 6 8.5 C 6 12.089851 8.9101491 15 12.5 15 C 12.666881 14.99926 12.833671 14.992096 13 14.978516 L 13 23 L 15 23 L 15 4 L 16 4 L 17 4 L 17 23 L 19 23 L 19 3.75 L 19 2 L 12.5 2 L 12 2 z "
     id="path2" />
</svg>
